icons/op-view-fit-to-16.svg

<svg width="16" height="16" viewBox="0 0 16 16" fill="none" xmlns="http://www.w3.org/2000/svg">
<g clip-path="url(#clip0_255_6517)">
<path d="M0 1.75C0 0.784 0.784 0 1.75 0H14.25C15.216 0 16 0.784 16 1.75V14.25C16 14.7141 15.8156 15.1592 15.4874 15.4874C15.1592 15.8156 14.7141 16 14.25 16H1.75C1.28587 16 0.840752 15.8156 0.512563 15.4874C0.184374 15.1592 0 14.7141 0 14.25V1.75ZM1.75 1.5C1.6837 1.5 1.62011 1.52634 1.57322 1.57322C1.52634 1.62011 1.5 1.6837 1.5 1.75V14.25C1.5 14.388 1.612 14.5 1.75 14.5H14.25C14.3163 14.5 14.3799 14.4737 14.4268 14.4268C14.4737 14.3799 14.5 14.3163 14.5 14.25V1.75C14.5 1.6837 14.4737 1.62011 14.4268 1.57322C14.3799 1.52634 14.3163 1.5 14.25 1.5H1.75Z" fill="white"/>
<path d="M0 1.75C0 0.784 0.784 0 1.75 0H14.25C15.216 0 16 0.784 16 1.75V14.25C16 14.7141 15.8156 15.1592 15.4874 15.4874C15.1592 15.8156 14.7141 16 14.25 16H1.75C1.28587 16 0.840752 15.8156 0.512563 15.4874C0.184374 15.1592 0 14.7141 0 14.25V1.75ZM1.75 1.5C1.6837 1.5 1.62011 1.52634 1.57322 1.57322C1.52634 1.62011 1.5 1.6837 1.5 1.75V14.25C1.5 14.388 1.612 14.5 1.75 14.5H14.25C14.3163 14.5 14.3799 14.4737 14.4268 14.4268C14.4737 14.3799 14.5 14.3163 14.5 14.25V1.75C14.5 1.6837 14.4737 1.62011 14.4268 1.57322C14.3799 1.52634 14.3163 1.5 14.25 1.5H1.75Z" fill="#1F2328"/>
<path fill-rule="evenodd" clip-rule="evenodd" d="M7.06066 8.93933C7.35355 9.23223 7.35355 9.7071 7.06066 9.99999L5.51992 11.5407H6.71967C7.13388 11.5407 7.46967 11.8765 7.46967 12.2907C7.46967 12.705 7.13388 13.0407 6.71967 13.0407H3.70926C3.29505 13.0407 2.95926 12.705 2.95926 12.2907V9.28033C2.95926 8.86612 3.29505 8.53033 3.70926 8.53033C4.12347 8.53033 4.45926 8.86612 4.45926 9.28033V10.4801L6 8.93933C6.29289 8.64644 6.76777 8.64644 7.06066 8.93933Z" fill="#1F2328"/>
<path fill-rule="evenodd" clip-rule="evenodd" d="M8.98005 7.06068C8.68716 6.76779 8.68716 6.29292 8.98005 6.00002L10.4801 4.49999L9.28033 4.49999C8.86612 4.49999 8.53033 4.1642 8.53033 3.74999C8.53033 3.33578 8.86612 2.99999 9.28033 2.99999L12.2907 2.99999C12.705 2.99999 13.0407 3.33578 13.0407 3.74999V6.7604C13.0407 7.17461 12.705 7.5104 12.2907 7.5104C11.8765 7.5104 11.5407 7.17461 11.5407 6.7604V5.56065L10.0407 7.06068C9.74782 7.35358 9.27294 7.35358 8.98005 7.06068Z" fill="#1F2328"/>
</g>
<defs>
<clipPath id="clip0_255_6517">
<rect width="16" height="16" fill="white"/>
</clipPath>
</defs>
</svg>

<svg xmlns="http://www.w3.org/2000/svg" width="16" height="16" viewBox="0 0 16 16"><path d="M0 1.75C0 .784.784 0 1.75 0h12.5C15.216 0 16 .784 16 1.75v12.5c0 .464-.184.909-.513 1.237A1.746 1.746 0 0 1 14.25 16H1.75c-.464 0-.909-.184-1.237-.513A1.746 1.746 0 0 1 0 14.25Zm1.75-.25a.25.25 0 0 0-.25.25v12.5c0 .138.112.25.25.25h12.5a.25.25 0 0 0 .25-.25V1.75a.25.25 0 0 0-.25-.25Z"/><path d="M0 1.75C0 .784.784 0 1.75 0h12.5C15.216 0 16 .784 16 1.75v12.5c0 .464-.184.909-.513 1.237A1.746 1.746 0 0 1 14.25 16H1.75c-.464 0-.909-.184-1.237-.513A1.746 1.746 0 0 1 0 14.25Zm1.75-.25a.25.25 0 0 0-.25.25v12.5c0 .138.112.25.25.25h12.5a.25.25 0 0 0 .25-.25V1.75a.25.25 0 0 0-.25-.25Z"/><path d="M7.061 8.939a.75.75 0 0 1 0 1.061L5.52 11.541h1.2a.75.75 0 0 1 0 1.5H3.709a.75.75 0 0 1-.75-.75V9.28a.75.75 0 0 1 1.5 0v1.2L6 8.939a.75.75 0 0 1 1.061 0ZM8.98 7.061A.75.75 0 0 1 8.98 6l1.5-1.5h-1.2a.75.75 0 0 1 0-1.5h3.011a.75.75 0 0 1 .75.75v3.01a.75.75 0 1 1-1.5 0V5.561l-1.5 1.5a.75.75 0 0 1-1.061 0Z"/></svg>
